X:34
T:Paddy Taylor's/Sean Reid's/ Tommy Peoples'
T:Paddy Taylor's
M:4/4
K:G
|:FEDF ABAF|GEcE dEcE|FEDF ABAF|1GEcE ED D2:|2GEcE EDDB||
Addc dfed|B/c/d ef g2 ed|Addc dfed|=cAGE EDDB|
Ad dc d3A|B/c/d ef g2 fg|af ge d2 cA|B/c/d AG FD DE|:
F3G A2 dG|GGdG GGdG|FEFG Add=c|A/B/A GE ED D2:|
T:Sean Reid's
|:DG !turn!G2 BG !turn!G2|cA !turn!A2 dBcA|DGGF GABd|cAFG AG G2|
DG !turn!G2 BG !turn!G2|cA !turn!A2 d2 ef|g2 ag gfde|fdcA AG G2:|:
dgga gfde|fdge fdcA|dg !turn!g2 gfde|fdcA AG G2|
!turn!g3a gfde|f3 g fdcA|dg !turn!g2 bgag|1fdcA AG G2:|2cAdc BGGF||
T:Tommy Peoples'
G2 BG cABG|ADDE FGAF|G2BG cABG|1Addc BGGF:|2Addc BGGf||
g2 dg egde|g2 bg fgaf|g2dg egdB|1cAdc BGGf:|2cAdc BGGF||

